assets/gi/gi-abstract-080.svg

<svg xmlns="http://www.w3.org/2000/svg" width="100%" height="100%" viewBox="-35.84 -35.84 583.68 583.68"><path d="m21,20.9999v218.8438h59.1907v-159.6532h159.6533v-59.1907h-218.844zm251.1566,0v59.1907h159.7999v159.6532h59.0435v-218.8438h-218.8434zm-163.0315,88.125v293.7501h293.7503v-293.7501h-293.7503zm146.8748,58.7501c48.64,0 88.1253,39.4852 88.1253,88.125s-39.4853,88.125-88.1253,88.125-88.1246-39.4853-88.1246-88.125 39.4847-88.125 88.1246-88.125zm-234.9999,104.2813v218.8438h218.844v-59.1906h-159.6533v-159.6532h-59.1907zm410.9565,0v159.6532h-159.7999v59.1906h218.8434v-218.8438h-59.0435z"/></svg>

<svg xmlns="http://www.w3.org/2000/svg" width="100%" height="100%" viewBox="-35.84 -35.84 583.68 583.68"><path d="M21 21v218.844h59.19V80.19h159.654V21H21zm251.157 0v59.19h159.8v159.654H491V21H272.157zm-163.032 88.125v293.75h293.75v-293.75h-293.75zM256 167.875c48.64 0 88.125 39.485 88.125 88.125S304.64 344.125 256 344.125 167.875 304.64 167.875 256 207.36 167.875 256 167.875zM21 272.156V491h218.844v-59.19H80.191V272.155H21zm410.957 0V431.81h-159.8V491H491V272.156h-59.044z"/></svg>
